tetrification/src/assets/images/piece_yellow2.svg

<svg width="123" height="183" viewBox="0 0 123 183" fill="none" xmlns="http://www.w3.org/2000/svg">
<path d="M0 126.545L4.04141 122.477H57.388L61.4294 126.545V179.838L57.388 183.906H4.04141L0 179.838V126.545Z" fill="#FBD73A" fill-opacity="0.6"/>
<path d="M1 179.426V126.958L4.45756 123.477H56.9719L60.4294 126.958V179.426L56.9719 182.906H4.45756L1 179.426Z" stroke="#C7961A" stroke-opacity="0.6" stroke-width="2"/>
<path d="M61.2751 126.618L65.3166 122.55H118.663L122.705 126.618V179.912L118.663 183.98H65.3166L61.2751 179.912V126.618Z" fill="#FBD73A" fill-opacity="0.6"/>
<path d="M62.2751 179.499V127.031L65.7327 123.55H118.247L121.705 127.031V179.499L118.247 182.98H65.7327L62.2751 179.499Z" stroke="#C7961A" stroke-opacity="0.6" stroke-width="2"/>
<path d="M61.2751 4.06817L65.3166 0H118.663L122.705 4.06817V57.3612L118.663 61.4294H65.3166L61.2751 57.3612V4.06817Z" fill="#FBD73A" fill-opacity="0.6"/>
<path d="M62.2751 56.949V4.48045L65.7327 1H118.247L121.705 4.48046V56.949L118.247 60.4294H65.7327L62.2751 56.949Z" stroke="#C7961A" stroke-opacity="0.6" stroke-width="2"/>
<path d="M61.2751 65.3431L65.3166 61.2749H118.663L122.705 65.3431V118.636L118.663 122.704H65.3166L61.2751 118.636V65.3431Z" fill="#FBD73A" fill-opacity="0.6"/>
<path d="M62.2751 118.224V65.7554L65.7327 62.2749H118.247L121.705 65.7554V118.224L118.247 121.704H65.7327L62.2751 118.224Z" stroke="#C7961A" stroke-opacity="0.6" stroke-width="2"/>
</svg>

<svg width="123" height="183" fill="none" xmlns="http://www.w3.org/2000/svg"><path d="m0 126.545 4.041-4.068h53.347l4.041 4.068v53.293l-4.041 4.068H4.041L0 179.838v-53.293Z" fill="#FBD73A" fill-opacity=".6"/><path d="M1 179.426v-52.468l3.458-3.481h52.514l3.457 3.481v52.468l-3.457 3.48H4.458L1 179.426Z" stroke="#C7961A" stroke-opacity=".6" stroke-width="2"/><path d="m61.275 126.618 4.042-4.068h53.346l4.042 4.068v53.294l-4.042 4.068H65.317l-4.042-4.068v-53.294Z" fill="#FBD73A" fill-opacity=".6"/><path d="M62.275 179.499v-52.468l3.458-3.481h52.514l3.458 3.481v52.468l-3.458 3.481H65.733l-3.458-3.481Z" stroke="#C7961A" stroke-opacity=".6" stroke-width="2"/><path d="M61.275 4.068 65.317 0h53.346l4.042 4.068v53.293l-4.042 4.068H65.317l-4.042-4.068V4.068Z" fill="#FBD73A" fill-opacity=".6"/><path d="M62.275 56.949V4.48L65.733 1h52.514l3.458 3.48V56.95l-3.458 3.48H65.733l-3.458-3.48Z" stroke="#C7961A" stroke-opacity=".6" stroke-width="2"/><path d="m61.275 65.343 4.042-4.068h53.346l4.042 4.068v53.293l-4.042 4.068H65.317l-4.042-4.068V65.343Z" fill="#FBD73A" fill-opacity=".6"/><path d="M62.275 118.224V65.755l3.458-3.48h52.514l3.458 3.48v52.469l-3.458 3.48H65.733l-3.458-3.48Z" stroke="#C7961A" stroke-opacity=".6" stroke-width="2"/></svg>
